X:1
T:How Much Greater Is His Love!
T:How Much Greater Is His Love!
T:E. Lester Thurman
T:Thomas Obediah Chisholm, 1917
T:Public Domain Courtesy of the Cyber Hymnal™
T:Public Domain Courtesy of the Cyber Hymnal™
C:E. Lester Thurman
Z:Public Domain
Z:Courtesy of the Cyber Hymnal™
%%score ( 1 2 ) ( 3 4 )
L:1/8
Q:1/4=100
M:4/4
K:G
V:1 treble 
V:2 treble 
V:3 bass 
V:4 bass 
V:1
 [B,D]3 [B,D] [^A,^C][B,D][DG][D=A] | [DB]2 [DB]4 [DB][Dc] | [Gd]3 [Gc] [GB]2 [FA]2 | G6 [DG][DF] | %4
w: 1.~I have seen a lov- ing|mo- ther Clasp her|child up- on her|breast, While her|
w: 2.~Songs I’ve heard of pure de-|vo- tion, Sweet as|songs of birds in|spring, Voice the|
w: 3.~When I was a sin- ful|wan- d’rer, All un-|love- ly, all un-|done, Ev- en|
w: 4.~Ties of friend- ship, ties of|kin- dred, Sac- red|bands that hold us,|here, Love for|
 [CE]3 [EA] [EG]2 [CE]2 | [CE]2 [B,D]4 [DG][DG] | [DA]3 [DA] [^CA]2 [CB]2 | [DA]6 DD | %8
w: lips, with warm af-|fec- tion, To its|own were fond- ly|pressed. But there’s|
w: heart’s su- preme e-|mo- tion— Songs that|on- ly love can|sing— But I|
w: then the Fa- ther|loved me, Gave for|me His on- ly|Son! Won- drous|
w: faith- ful ones that|love us, How they|all our life en-|dear! But the|
 [FA]3 [FA] [FB]2 [DF]2 | [DA]2 [DG]4 GG | [Gc]3 [Gc] [Fd]2 [FA]2 | [GB]6 [GB][G^c] | %12
w: love that’s deep- er,|strong- er— If you|ask, “How could it|be?” Look where|
w: think of One who|loves me, More than|lov- er, more than|friend, Love that|
w: love! it “pass- eth|know- ledge,” High- er|than the high- est|heav’n, Je- sus|
w: love of Christ my|Sav- ior, How it|doth my heart en-|thrall! For I|
 [^Ed]3 [Ed] [E^c]2 [EB]2 | [FB]2 [FA]2 [^DG]2 [DF]2 | [DF]2 [DE]2 [^CF]3 [CE] | [DA]6 || %16
w: Christ my bless- èd|Sav- ior Died on|Cal- va- ry for|me!|
w: no- thing e’er can|se- ver, That will|ne- ver, ne- ver|end.|
w: cru- ci- fied and|dy- ing, That my|sins might be for-|giv’n.|
w: know He loves me|bet- ter, And I|love Him best of|all.|
"^Refrain" [DB][Dc] | [Gd]3 [A^d] [^Ge]2 [GB]2 | [Bd]2 [Ac]4 [Ac][Ac] | %19
w: |||
w: How much|great- er! how much|great- er, Than the|
w: |||
w: |||
 [Ac]3 [A^c] [Ad][FA][GB][A=c] | [GB]6 G[FA] | [GB]3 [Ad] [^Ge]2 [GB]2 | [Bd]2 [Ac]2 [EB]2 [EA]2 | %23
w: ||||
w: tru- est hu- man love could|be Is the|love of Christ my|Sav- ior, Will- ing|
w: ||||
w: ||||
 [DG][B,D][^A,^C][B,D] [DB]2 [C=A]2 | [B,G]6 z2 |] %25
w: ||
w: thus to die for one like|me.|
w: ||
w: ||
V:2
 x8 | x8 | x8 | G6 x2 | x8 | x8 | x8 | x6 DD | x8 | x6 GG | x8 | x8 | x8 | x8 | x8 | x6 || x2 | %17
 x8 | x8 | x8 | x6 G x | x8 | x8 | x8 | x8 |] %25
V:3
 [G,,G,]3 [G,,G,] [G,,G,][G,,G,][B,,G,][D,F,] | G,2 G,4 G,[G,A,] | [G,B,]3 [C,E] [D,D]2 [D,C]2 | %3
 [G,B,]6 [B,,G,][B,,G,] | [C,G,]3 [C,C] [C,C]2 [C,G,]2 | [G,,G,]2 [G,,G,]4 [B,,G,][B,,G,] | %6
 [D,F,]3 [D,F,] [E,G,]2 [A,,G,]2 | [D,F,]6 [D,F,][D,F,] | [D,C]3 [D,C] [D,D]2 [D,C]2 | %9
 [G,C]2 [G,B,]4 [B,D][B,D] | [A,E]3 [A,E] [D,D]2 [D,D]2 | [G,D]6 [G,D][G,^C] | %12
 [^G,B,]3 [G,B,] [G,^C]2 [G,D]2 | [A,D]2 [A,D]2 B,2 [B,,A,]2 | [E,^G,]2 [E,G,]2 [A,,=G,]3 [A,,G,] | %15
 [D,F,]6 || G,[G,A,] | [G,B,]3 [F,B,] [E,B,]2 [E,E]2 | [A,E]2 [A,E]4 [A,E][A,E] | %19
 [A,E]3 [G,E] [F,D][D,D][D,D][D,D] | [G,D]6 [G,B,][D,D] | [G,D]3 [=F,B,] [E,B,]2 [E,E]2 | %22
 [A,E]2 [A,,E]2 [B,,D]2 [C,C]2 | [D,B,][D,G,][D,G,][D,G,] [D,G,]2 [D,F,]2 | [G,,G,]6 z2 |] %25
V:4
 x8 | G,2 G,4 G, x | x8 | x8 | x8 | x8 | x8 | x8 | x8 | x8 | x8 | x8 | x8 | x4 B,2 x2 | x8 | x6 || %16
 G, x | x8 | x8 | x8 | x8 | x8 | x8 | x8 | x8 |] %25

